X: 20842
M: 2/4
L: 1/16
K: F
V: 1 name="2"
(3(cde) |\
f4 c3A | FGAB cdef | g4 b3g | efgf ecde |\
f4 c3A | FGAB cdef | gbeg cdec | f2a2f2 H|]


